X: 328
T: Liao gege
%%abc-version 2.0
%%abcx-abcm2ps-target-version 5.9.1 (29 Sep 2008)
%%abc-creator hum2abc beta
%%abcx-conversion-date 2013/10/02 07:52:30
%%abc-edited-by Helmut Schaffrath
%%humdrum-veritas 1667409174
%%humdrum-veritas-data 320134849
%%continueall 1
%%barnumbers 0
L: 1/8
M: 2/4
K: Bb
d'f'2g' [I:setbarnb 1]| 
f'2d' c' | 
f'c'2b | 
gf3 | 
gb2c' | 
f'2g' d' | 
f2c'/ d'/ c'/ b/ | 
c' d' b g | 
f2b c' | 
f'2d' f' | 
c' d' b g | 
ff2b | 
c' d' b g | 
f4 |]  



